; generated by PrusaSlicer 2.5.0+win64 on 2022-12-16 at 09:41:15 UTC


;
;

;
;
; 

; external perimeters extrusion width = 0.45mm
; perimeters extrusion width = 0.45mm
; infill extrusion width = 0.45mm
; solid infill extrusion width = 0.45mm
; top infill extrusion width = 0.40mm
; first layer extrusion width = 0.42mm

M107
;TYPE:Custom
;
; start script for PrusaSlicer for CaribouDuet
;
;
T0                               ; select tool 0
;
G0 X60 Y-3 Z40                   ; move extruder above bed, keep extruder in front for cleaning and checking
;
M568 P0 S160 A2                  ; pre-heat extruder to 160C
M140 S60    ; this will take the layer 1 temperature for bed 0
M190 S60    ; wait for bed temp
;
G29                              ; mesh bed leveling using defined mesh grid
G0 X0 Y-3 Z0.6                   ; go outside print area
;
M568 P0 S215 A2  ; set extruder temperature
M109 S215        ; wait for extruder temp
;
;
;
M98 P"0:/sys/primeLine.g"        ; execute primeline macro
;
G92 E0.0                         ; set extruder position
;
M572 D0 S0.04                    ; set pressure advance
;
G21 ; set units to millimeters
G90 ; use absolute coordinates
M83 ; use relative distances for extrusion
M900 K0.05 ; Filament gcode LA 1.5
M900 K30 ; Filament gcode LA 1.0
M107
;LAYER_CHANGE
;Z:0.2
;HEIGHT:0.2
;BEFORE_LAYER_CHANGE
G92 E0.0
;0.2


G1 E-.8 F2100
G1 Z.6 F720
;AFTER_LAYER_CHANGE
;0.2
G1 X93.573 Y74.704 F10800
G1 Z.2 F720
G1 E.8 F2100
M204 P800
;TYPE:Skirt/Brim
;WIDTH:0.42
G1 F1200
G1 X94.052 Y74.105 E.02404
G1 X94.954 Y73.323 E.03741
G1 X95.923 Y72.794 E.03463
G1 X97.068 Y72.458 E.03741
G1 X98 Y72.373 E.02935
G1 X152.17 Y72.379 E1.69845
G1 X153.35 Y72.549 E.03741
G1 X154.077 Y72.794 E.02404
G1 X155.046 Y73.323 E.03463
G1 X155.645 Y73.802 E.02404
G1 X156.427 Y74.704 E.03741
G1 X156.815 Y75.365 E.02404
G1 X157.201 Y76.399 E.03463
G1 X157.34 Y77.153 E.02404
G1 X157.377 Y135.25 E1.82158
G1 X156.985 Y136.557 E.04278
G1 X155.94 Y137.433 E.04278
G1 X155 Y137.627 E.03008
G1 X95 Y137.627 E1.88126
G1 X93.693 Y137.235 E.04278
G1 X92.817 Y136.19 E.04278
G1 X92.623 Y135.25 E.03008
G1 X92.623 Y77.75 E1.80287
G1 X92.708 Y76.818 E.02935
G1 X93.044 Y75.673 E.03741
G1 X93.545 Y74.756 E.03275
M204 P1000
; printing object Sunlu_fan_holder_v3_v3.stl id:0 copy 0
;WIPE_START
G1 F8640
G1 X94.052 Y74.105 E-.1907
G1 X94.954 Y73.323 E-.27548
G1 X95.923 Y72.794 E-.25505
G1 X96.084 Y72.747 E-.03878
;WIPE_END
G1 E-.04 F2100
G1 Z.8 F720
G1 X95.787 Y131.123 F10800
G1 Z.2 F720
G1 E.8 F2100
M204 P800
;TYPE:Perimeter
;WIDTH:0.419999
G1 F1200
G1 X95.787 Y77.861 E1.66999
G1 X95.793 Y77.695 E.0052
G1 X95.879 Y77.127 E.01802
G1 X96.14 Y76.555 E.01973
G1 X96.552 Y76.079 E.01973
G1 X97.082 Y75.739 E.01973
G1 X97.531 Y75.595 E.0148
G1 X98.028 Y75.537 E.01568
G1 X151.889 Y75.538 E1.68878
G1 X152.061 Y75.543 E.0054
G1 X152.623 Y75.629 E.0178
G1 X153.195 Y75.89 E.01973
G1 X153.671 Y76.302 E.01973
G1 X154.011 Y76.832 E.01973
G1 X154.155 Y77.281 E.0148
G1 X154.213 Y77.778 E.01568
G1 X154.213 Y122.063 E1.38852
G1 X151.279 Y122.063 E.09201
G1 X151.167 Y122.074 E.00352
G1 X150.961 Y122.161 E.007
G1 X150.783 Y122.357 E.00831
G1 X150.713 Y122.623 E.00863
G1 X150.713 Y125.272 E.08305
G1 X150.729 Y126.204 E.02922
G1 X150.818 Y126.4 E.00678
G1 X150.994 Y126.56 E.00744
G1 X151.278 Y126.637 E.00924
G1 X154.213 Y126.637 E.09202
G1 X154.213 Y131.126 E.14074
G1 X153.891 Y130.49 E.02235
G1 X153.55 Y130.015 E.01834
G1 X153.146 Y129.591 E.01834
G1 X152.689 Y129.226 E.01834
G1 X152.188 Y128.927 E.01829
G1 X151.654 Y128.7 E.01821
G1 X151.085 Y128.546 E.01847
G1 X150.478 Y128.471 E.01919
G1 X149.923 Y128.476 E.0174
G1 X149.343 Y128.56 E.01836
G1 X148.781 Y128.723 E.01836
G1 X148.246 Y128.961 E.01836
G1 X147.748 Y129.269 E.01836
G1 X147.297 Y129.642 E.01836
G1 X146.901 Y130.073 E.01836
G1 X146.567 Y130.555 E.01838
G1 X146.302 Y131.077 E.01835
G1 X146.111 Y131.63 E.01834
G1 X145.997 Y132.204 E.01836
G1 X145.948 Y132.933 E.02289
G1 X145.977 Y133.155 E.00703
G1 X146.154 Y133.409 E.0097
G1 X146.512 Y133.537 E.01192
G1 X147.463 Y133.537 E.02982
G1 X147.463 Y134.463 E.02903
G1 X102.537 Y134.463 E1.40862
G1 X102.537 Y133.537 E.02903
G1 X103.487 Y133.537 E.02979
G1 X103.845 Y133.409 E.01192
G1 X104.022 Y133.155 E.0097
G1 X104.051 Y132.933 E.00703
G1 X103.991 Y132.128 E.0253
G1 X103.867 Y131.556 E.01834
G1 X103.666 Y131.007 E.01834
G1 X103.392 Y130.49 E.01834
G1 X103.051 Y130.015 E.01834
G1 X102.647 Y129.591 E.01834
G1 X102.19 Y129.226 E.01834
G1 X101.688 Y128.927 E.01834
G1 X101.149 Y128.698 E.01834
G1 X100.584 Y128.546 E.01834
G1 X100.004 Y128.471 E.01834
G1 X99.419 Y128.476 E.01834
G1 X98.84 Y128.561 E.01834
G1 X98.278 Y128.724 E.01834
G1 X97.744 Y128.962 E.01834
G1 X97.247 Y129.271 E.01834
G1 X96.796 Y129.644 E.01834
G1 X96.401 Y130.075 E.01834
G1 X96.068 Y130.556 E.01834
G1 X95.814 Y131.069 E.01796
M204 P1000
;WIPE_START
G1 F8640
G1 X95.812 Y127.778 E-.76
;WIPE_END
G1 E-.04 F2100
G1 Z.8 F720
G1 X153.035 Y134.463 F10800
G1 Z.2 F720
G1 E.8 F2100
M204 P800
G1 F1200
G1 X153.035 Y133.537 E.02903
G1 X153.986 Y133.537 E.02982
G1 X154.213 Y133.347 E.00929
G1 X154.213 Y134.463 E.035
G1 X153.095 Y134.463 E.03505
M204 P1000
;WIPE_START
G1 F8640
G1 X153.035 Y133.537 E-.21423
G1 X153.986 Y133.537 E-.2196
G1 X154.213 Y133.347 E-.06839
G1 X154.213 Y134.463 E-.25776
G1 X154.213 Y134.463 E-.00003
;WIPE_END
G1 E-.04 F2100
G1 Z.8 F720
G1 X95.787 Y133.347 F10800
G1 Z.2 F720
G1 E.8 F2100
M204 P800
G1 F1200
G1 X96.013 Y133.537 E.00925
G1 X96.963 Y133.537 E.02979
G1 X96.963 Y134.463 E.02903
G1 X95.787 Y134.463 E.03687
G1 X95.787 Y133.407 E.03309
M204 P1000
G1 X95.815 Y132.971 F10800
M204 P800
;TYPE:External perimeter
;WIDTH:0.438628
G1 F1200
G1 X96.013 Y133.16 E.00899
;WIDTH:0.419999
G1 X97.34 Y133.16 E.04161
G1 X97.34 Y134.84 E.05268
G1 X95.41 Y134.84 E.06051
G1 X95.41 Y133.763 E.03377
;WIDTH:0.439089
G1 X95.42 Y132.944 E.02696
;WIDTH:0.467981
G1 X95.434 Y132.157 E.02785
G1 X95.41 Y131.649 E.01797
;WIDTH:0.419999
G1 X95.41 Y77.861 E1.68647
G1 X95.424 Y77.566 E.00927
G1 X95.516 Y77.021 E.01733
G1 X95.734 Y76.512 E.01733
G1 X96.043 Y76.055 E.01733
G1 X96.452 Y75.683 E.01733
G1 X96.925 Y75.395 E.01733
G1 X97.451 Y75.227 E.01733
G1 X98.015 Y75.16 E.01779
G1 X151.889 Y75.161 E1.6892
G1 X152.184 Y75.174 E.00925
G1 X152.729 Y75.266 E.01733
G1 X153.238 Y75.484 E.01733
G1 X153.695 Y75.793 E.01733
G1 X154.067 Y76.202 E.01733
G1 X154.355 Y76.675 E.01733
G1 X154.523 Y77.201 E.01733
G1 X154.59 Y77.765 E.01779
G1 X154.59 Y122.44 E1.40076
G1 X151.279 Y122.44 E.10383
G1 X151.159 Y122.483 E.00397
G1 X151.09 Y122.627 E.00501
G1 X151.09 Y126.071 E.10801
G1 X151.141 Y126.201 E.00436
G1 X151.278 Y126.26 E.00468
G1 X154.59 Y126.26 E.10383
G1 X154.59 Y127.902 E.05149
G1 X154.59 Y131.649 E.11746
;WIDTH:0.464524
G1 X154.568 Y132.214 E.01985
G1 X154.579 Y133.04 E.02896
;WIDTH:0.442127
G1 X154.59 Y133.764 E.02402
;WIDTH:0.419999
G1 X154.59 Y134.84 E.03374
G1 X152.658 Y134.84 E.06058
G1 X152.658 Y133.16 E.05268
G1 X153.986 Y133.16 E.04164
;WIDTH:0.442127
G1 X154.183 Y133.006 E.00829
G1 X154.184 Y132.958 E.00159
;WIDTH:0.468483
G1 X154.145 Y132.2 E.02686
G1 X154.011 Y131.683 E.01891
;WIDTH:0.419999
G1 X153.83 Y131.18 E.01673
G1 X153.583 Y130.707 E.01673
G1 X153.274 Y130.272 E.01673
G1 X152.908 Y129.884 E.01673
G1 X152.493 Y129.548 E.01673
G1 X152.038 Y129.273 E.01669
G1 X151.551 Y129.063 E.0166
G1 X151.036 Y128.92 E.01678
G1 X150.478 Y128.848 E.01764
G1 X149.974 Y128.85 E.0158
G1 X149.445 Y128.924 E.01674
G1 X148.931 Y129.069 E.01674
G1 X148.441 Y129.283 E.01674
G1 X147.986 Y129.562 E.01675
G1 X147.572 Y129.9 E.01674
G1 X147.209 Y130.291 E.01674
G1 X146.902 Y130.729 E.01676
G1 X146.658 Y131.203 E.01674
G1 X146.481 Y131.707 E.01673
G1 X146.374 Y132.23 E.01675
G1 X146.324 Y132.959 E.02289
G1 X146.392 Y133.117 E.00543
G1 X146.512 Y133.16 E.00397
G1 X147.84 Y133.16 E.04164
G1 X147.84 Y134.84 E.05268
G1 X102.16 Y134.84 E1.43226
G1 X102.16 Y133.16 E.05268
G1 X103.487 Y133.16 E.04161
G1 X103.607 Y133.117 E.00397
G1 X103.675 Y132.959 E.00543
G1 X103.622 Y132.205 E.02369
G1 X103.512 Y131.683 E.01673
G1 X103.331 Y131.18 E.01673
G1 X103.084 Y130.707 E.01673
G1 X102.775 Y130.272 E.01673
G1 X102.409 Y129.884 E.01673
G1 X101.994 Y129.548 E.01673
G1 X101.537 Y129.272 E.01673
G1 X101.047 Y129.061 E.01673
G1 X100.533 Y128.919 E.01673
G1 X100.004 Y128.848 E.01673
G1 X99.47 Y128.85 E.01673
G1 X98.942 Y128.924 E.01673
G1 X98.428 Y129.07 E.01673
G1 X97.94 Y129.284 E.01673
G1 X97.485 Y129.563 E.01673
G1 X97.072 Y129.901 E.01673
G1 X96.709 Y130.292 E.01673
G1 X96.402 Y130.729 E.01673
G1 X96.159 Y131.204 E.01673
G1 X95.981 Y131.707 E.01673
;WIDTH:0.464025
G1 X95.853 Y132.229 E.0188
G1 X95.818 Y132.912 E.02394
M204 P1000
G1 X95.672 Y133.204 F10800
G1 X96.025 Y133.65
M204 P800
;TYPE:Solid infill
;WIDTH:0.449432
G1 F1200
G1 X96.725 Y134.35 E.03344
M204 P1000
;WIPE_START
G1 F8640
G1 X96.025 Y133.65 E-.22846
;WIPE_END
G1 E-.57154 F2100
G1 Z.8 F720
G1 X153.274 Y133.65 F10800
G1 Z.2 F720
G1 E.8 F2100
M204 P800
;WIDTH:0.449902
G1 F1200
G1 X153.974 Y134.35 E.03348
M204 P1000
;WIPE_START
G1 F8640
G1 X153.274 Y133.65 E-.22846
;WIPE_END
G1 E-.57154 F2100
G1 Z.8 F720
G1 X152.775 Y75.806 F10800
G1 Z.2 F720
G1 E.8 F2100
M204 P800
;WIDTH:0.420177
G1 F1200
G1 X153.457 Y76.489 E.03029
G1 X153.621 Y76.708 E.0086
G1 X153.753 Y76.949 E.00863
G1 X153.849 Y77.207 E.00863
G1 X153.907 Y77.472 E.0085
G1 X152.278 Y75.843 E.07226
G1 X151.722 Y75.82 E.01746
G1 X153.93 Y78.029 E.09796
G1 X153.93 Y78.562 E.01674
G1 X151.188 Y75.82 E.12163
G1 X150.655 Y75.82 E.01674
G1 X153.93 Y79.096 E.1453
G1 X153.93 Y79.629 E.01674
G1 X150.121 Y75.82 E.16897
G1 X149.588 Y75.82 E.01674
G1 X153.93 Y80.163 E.19264
G1 X153.93 Y80.696 E.01674
G1 X149.054 Y75.82 E.2163
G1 X148.521 Y75.82 E.01674
G1 X153.93 Y81.23 E.23997
G1 X153.93 Y81.763 E.01674
G1 X147.987 Y75.82 E.26364
G1 X147.454 Y75.82 E.01674
G1 X153.93 Y82.297 E.28731
G1 X153.93 Y82.83 E.01674
G1 X146.92 Y75.82 E.31098
G1 X146.387 Y75.82 E.01674
G1 X153.93 Y83.364 E.33465
G1 X153.93 Y83.897 E.01674
G1 X145.853 Y75.82 E.35832
G1 X145.32 Y75.82 E.01674
G1 X153.93 Y84.431 E.38198
G1 X153.93 Y84.964 E.01674
G1 X144.786 Y75.82 E.40565
G1 X144.253 Y75.82 E.01674
G1 X153.93 Y85.498 E.42932
G1 X153.93 Y86.031 E.01674
G1 X143.719 Y75.82 E.45299
G1 X143.186 Y75.82 E.01674
G1 X153.93 Y86.565 E.47666
G1 X153.93 Y87.098 E.01674
G1 X142.652 Y75.82 E.50033
G1 X142.118 Y75.82 E.01674
G1 X153.93 Y87.632 E.524
G1 X153.93 Y88.165 E.01674
G1 X141.585 Y75.82 E.54766
G1 X141.051 Y75.82 E.01674
G1 X153.93 Y88.699 E.57133
G1 X153.93 Y89.233 E.01674
G1 X140.518 Y75.82 E.595
G1 X139.984 Y75.82 E.01674
G1 X153.93 Y89.766 E.61867
G1 X153.93 Y90.3 E.01674
G1 X139.451 Y75.82 E.64234
G1 X138.917 Y75.82 E.01674
G1 X153.93 Y90.833 E.66601
G1 X153.93 Y91.367 E.01674
G1 X138.384 Y75.82 E.68968
G1 X137.85 Y75.82 E.01674
G1 X153.93 Y91.9 E.71334
G1 X153.93 Y92.434 E.01674
G1 X137.317 Y75.82 E.73701
G1 X136.783 Y75.82 E.01674
G1 X153.93 Y92.967 E.76068
G1 X153.93 Y93.501 E.01674
G1 X136.25 Y75.82 E.78435
G1 X135.716 Y75.82 E.01674
G1 X153.93 Y94.034 E.80802
G1 X153.93 Y94.568 E.01674
G1 X135.183 Y75.82 E.83169
G1 X134.649 Y75.82 E.01674
G1 X153.93 Y95.101 E.85536
G1 X153.93 Y95.635 E.01674
G1 X134.116 Y75.82 E.87903
G1 X133.582 Y75.82 E.01674
G1 X153.93 Y96.168 E.90269
G1 X153.93 Y96.702 E.01674
G1 X133.048 Y75.82 E.92636
G1 X132.515 Y75.82 E.01674
G1 X153.93 Y97.235 E.95003
G1 X153.93 Y97.769 E.01674
G1 X131.981 Y75.82 E.9737
G1 X131.448 Y75.82 E.01674
G1 X153.93 Y98.302 E.99737
G1 X153.93 Y98.836 E.01674
G1 X130.914 Y75.82 E1.02104
G1 X130.381 Y75.82 E.01674
G1 X153.93 Y99.369 E1.04471
G1 X153.93 Y99.903 E.01674
G1 X129.847 Y75.82 E1.06837
G1 X129.314 Y75.82 E.01674
G1 X153.93 Y100.436 E1.09204
G1 X153.93 Y100.97 E.01674
G1 X128.78 Y75.82 E1.11571
G1 X128.247 Y75.82 E.01674
G1 X153.93 Y101.504 E1.13938
G1 X153.93 Y102.037 E.01674
G1 X127.713 Y75.82 E1.16305
G1 X127.18 Y75.82 E.01674
G1 X153.93 Y102.571 E1.18672
G1 X153.93 Y103.104 E.01674
G1 X126.646 Y75.82 E1.21039
G1 X126.113 Y75.82 E.01674
G1 X153.93 Y103.638 E1.23405
G1 X153.93 Y104.171 E.01674
G1 X125.579 Y75.82 E1.25772
G1 X125.046 Y75.82 E.01674
G1 X153.93 Y104.705 E1.28139
G1 X153.93 Y105.238 E.01674
G1 X124.512 Y75.82 E1.30506
G1 X123.979 Y75.82 E.01674
G1 X153.93 Y105.772 E1.32873
G1 X153.93 Y106.305 E.01674
G1 X123.445 Y75.82 E1.3524
G1 X122.911 Y75.82 E.01674
G1 X153.93 Y106.839 E1.37607
G1 X153.93 Y107.372 E.01674
G1 X122.378 Y75.82 E1.39973
G1 X121.844 Y75.82 E.01674
G1 X153.93 Y107.906 E1.4234
G1 X153.93 Y108.439 E.01674
G1 X121.311 Y75.82 E1.44707
G1 X120.777 Y75.82 E.01674
G1 X153.93 Y108.973 E1.47074
G1 X153.93 Y109.506 E.01674
G1 X120.244 Y75.82 E1.49441
G1 X119.71 Y75.82 E.01674
G1 X153.93 Y110.04 E1.51808
G1 X153.93 Y110.573 E.01674
G1 X119.177 Y75.82 E1.54175
G1 X118.643 Y75.82 E.01674
G1 X153.93 Y111.107 E1.56541
G1 X153.93 Y111.64 E.01674
G1 X118.11 Y75.82 E1.58908
G1 X117.576 Y75.82 E.01674
G1 X153.93 Y112.174 E1.61275
G1 X153.93 Y112.707 E.01674
G1 X117.043 Y75.82 E1.63642
G1 X116.509 Y75.82 E.01674
G1 X153.93 Y113.241 E1.66009
G1 X153.93 Y113.775 E.01674
G1 X115.976 Y75.82 E1.68376
G1 X115.442 Y75.82 E.01674
G1 X153.93 Y114.308 E1.70743
G1 X153.93 Y114.842 E.01674
G1 X114.909 Y75.82 E1.7311
G1 X114.375 Y75.82 E.01674
G1 X153.93 Y115.375 E1.75476
G1 X153.93 Y115.909 E.01674
G1 X113.842 Y75.82 E1.77843
G1 X113.308 Y75.82 E.01674
G1 X153.93 Y116.442 E1.8021
G1 X153.93 Y116.976 E.01674
G1 X112.774 Y75.82 E1.82577
G1 X112.241 Y75.82 E.01674
G1 X153.93 Y117.509 E1.84944
G1 X153.93 Y118.043 E.01674
G1 X111.707 Y75.82 E1.87311
G1 X111.174 Y75.82 E.01674
G1 X153.93 Y118.576 E1.89678
G1 X153.93 Y119.11 E.01674
G1 X110.64 Y75.82 E1.92044
G1 X110.107 Y75.82 E.01674
G1 X153.93 Y119.643 E1.94411
G1 X153.93 Y120.177 E.01674
G1 X109.573 Y75.82 E1.96778
G1 X109.04 Y75.82 E.01674
G1 X153.93 Y120.71 E1.99145
G1 X153.93 Y121.244 E.01674
G1 X108.506 Y75.82 E2.01512
G1 X107.973 Y75.82 E.01674
G1 X153.93 Y121.78 E2.03885
G1 X153.399 Y121.78 E.01665
G1 X107.439 Y75.82 E2.03891
G1 X106.906 Y75.82 E.01674
G1 X152.866 Y121.78 E2.03891
G1 X152.332 Y121.78 E.01674
G1 X106.372 Y75.82 E2.03891
G1 X105.839 Y75.82 E.01674
G1 X151.799 Y121.78 E2.03891
G1 X151.266 Y121.781 E.01671
G1 X105.305 Y75.82 E2.03895
G1 X104.772 Y75.82 E.01674
G1 X150.85 Y121.899 E2.04417
G1 X150.741 Y121.971 E.00411
G1 X150.622 Y122.089 E.00526
G1 X150.58 Y122.162 E.00264
G1 X104.238 Y75.82 E2.05586
G1 X103.705 Y75.82 E.01674
G1 X150.438 Y122.553 E2.07321
G1 X150.431 Y123.08 E.01651
G1 X103.171 Y75.82 E2.09656
G1 X102.637 Y75.82 E.01674
G1 X150.431 Y123.613 E2.12022
G1 X150.43 Y124.146 E.01673
G1 X102.104 Y75.82 E2.14389
G1 X101.57 Y75.82 E.01674
G1 X150.43 Y124.68 E2.16755
G1 X150.43 Y125.213 E.01673
G1 X101.037 Y75.82 E2.19122
G1 X100.503 Y75.82 E.01674
G1 X150.6 Y125.916 E2.22241
M204 P1000
;WIPE_START
G1 F8640
G1 X148.272 Y123.589 E-.76
;WIPE_END
G1 E-.04 F2100
G1 Z.8 F720
G1 X153.567 Y126.749 F10800
G1 Z.2 F720
G1 E.8 F2100
M204 P800
G1 F1200
G1 X153.93 Y127.113 E.01612
G1 X153.93 Y127.646 E.01674
G1 X153.202 Y126.918 E.0323
G1 X152.667 Y126.917 E.01677
G1 X153.93 Y128.18 E.05602
G1 X153.93 Y128.713 E.01674
G1 X152.133 Y126.916 E.07975
G1 X151.598 Y126.914 E.01677
G1 X153.93 Y129.247 E.10347
G1 X153.93 Y129.78 E.01674
G1 X99.97 Y75.82 E2.39382
G1 X99.436 Y75.82 E.01674
G1 X152.282 Y128.666 E2.34439
G1 X151.834 Y128.465 E.01543
G1 X151.428 Y128.345 E.01326
G1 X98.903 Y75.82 E2.33017
G1 X98.369 Y75.82 E.01674
G1 X150.777 Y128.227 E2.32493
G1 X150.483 Y128.188 E.00929
G1 X150.207 Y128.191 E.00866
G1 X97.849 Y75.833 E2.32273
G1 X97.726 Y75.842 E.00388
G1 X97.403 Y75.921 E.01042
G1 X149.703 Y128.221 E2.32016
G1 X149.248 Y128.3 E.01448
G1 X97.035 Y76.086 E2.31631
G1 X96.738 Y76.293 E.01137
G1 X96.723 Y76.308 E.00065
G1 X148.828 Y128.413 E2.3115
G1 X148.446 Y128.565 E.01288
G1 X96.469 Y76.587 E2.30585
G1 X96.379 Y76.708 E.00473
G1 X96.265 Y76.916 E.00745
G1 X148.079 Y128.731 E2.29863
G1 X147.751 Y128.936 E.01215
G1 X96.128 Y77.313 E2.29013
G1 X96.092 Y77.476 E.00523
G1 X96.07 Y77.789 E.00984
G1 X147.438 Y129.157 E2.27882
